wp-content/themes/modern-journalist/img/icon-twitter.svg

<?xml version="1.0" encoding="UTF-8"?>
<svg width="20px" height="17px" viewBox="0 0 20 17" version="1.1" xmlns="http://www.w3.org/2000/svg" xmlns:xlink="http://www.w3.org/1999/xlink">
    <!-- Generator: Sketch 54.1 (76490) - https://sketchapp.com -->
    <title>twitter - poni</title>
    <desc>Created with Sketch.</desc>
    <g id="Page-1" stroke="none" stroke-width="1" fill="none" fill-rule="evenodd">
        <g id="Desktop-hd" transform="translate(-750.000000, -2599.000000)" fill="#000000">
            <path d="M770,2600.92276 C769.438753,2601.73711 768.756166,2602.43834 767.952218,2603.02649 L767.952218,2603.54676 C767.952218,2604.64764 767.792948,2605.74097 767.474403,2606.82676 C767.155857,2607.91256 766.670462,2608.96065 766.018203,2609.97104 C765.365943,2610.98144 764.58476,2611.86364 763.67463,2612.61767 C762.764501,2613.37169 761.672361,2613.98999 760.39818,2614.47256 C759.123998,2614.95514 757.75124,2615.18135 756.279863,2615.15118 C753.98937,2615.15118 751.896104,2614.54043 750,2613.31891 C750.288208,2613.34907 750.614333,2613.36415 750.978385,2613.36415 C752.889657,2613.36415 754.58854,2612.78356 756.075085,2611.62235 C755.180124,2611.60727 754.383773,2611.33583 753.686007,2610.80801 C752.988241,2610.28019 752.502846,2609.60912 752.229807,2608.79477 C752.518014,2608.84001 752.775881,2608.86263 753.003413,2608.86263 C753.367465,2608.86263 753.731511,2608.81739 754.095563,2608.7269 C753.139927,2608.53086 752.35116,2608.06337 751.729238,2607.32442 C751.107316,2606.58547 750.796359,2605.71835 750.796359,2604.72304 L750.796359,2604.6778 C751.372775,2604.99449 751.994688,2605.16791 752.662116,2605.19807 C752.100869,2604.82106 751.653396,2604.33849 751.319681,2603.75035 C750.985967,2603.16221 750.819113,2602.50621 750.819113,2601.78235 C750.819113,2601.05848 751.00872,2600.37987 751.387941,2599.74648 C752.419421,2600.99817 753.663246,2602.00101 755.119454,2602.75504 C756.575661,2603.50906 758.153196,2603.92377 759.852105,2603.99918 C759.776261,2603.68248 759.738339,2603.37334 759.738339,2603.07173 C759.738339,2601.94069 760.140307,2600.98309 760.944255,2600.1989 C761.748203,2599.41471 762.711409,2599.01508 763.833902,2599 C765.03224,2599 766.033367,2599.42979 766.837315,2600.28938 C767.762614,2600.10841 768.634808,2599.77665 769.453925,2599.29407 C769.13538,2600.25922 768.528635,2601.01324 767.633675,2601.55614 C768.422454,2601.46566 769.211221,2601.25453 770,2600.92276 Z" id="twitter---poni"></path>
        </g>
    </g>
</svg>

<?xml version="1.0" encoding="utf-8"?>
<!-- Generator: Adobe Illustrator 23.0.2, SVG Export Plug-In . SVG Version: 6.00 Build 0)  -->
<svg version="1.1" id="Layer_1" xmlns="http://www.w3.org/2000/svg" xmlns:xlink="http://www.w3.org/1999/xlink" x="0px" y="0px"
	 viewBox="0 0 20 17" style="enable-background:new 0 0 20 17;" xml:space="preserve">
<style type="text/css">
	.st0{fill-rule:evenodd;clip-rule:evenodd;fill:#FFFFFF;}
</style>
<title>twitter - poni</title>
<desc>Created with Sketch.</desc>
<g id="Page-1">
	<g id="Desktop-hd" transform="translate(-750.000000, -2599.000000)">
		<path id="twitter---poni" class="st0" d="M770,2600.9c-0.6,0.8-1.2,1.5-2,2.1v0.5c0,1.1-0.2,2.2-0.5,3.3c-0.3,1.1-0.8,2.1-1.5,3.1
			c-0.7,1-1.4,1.9-2.3,2.6c-0.9,0.8-2,1.4-3.3,1.9c-1.3,0.5-2.6,0.7-4.1,0.7c-2.3,0-4.4-0.6-6.3-1.8c0.3,0,0.6,0,1,0
			c1.9,0,3.6-0.6,5.1-1.7c-0.9,0-1.7-0.3-2.4-0.8c-0.7-0.5-1.2-1.2-1.5-2c0.3,0,0.5,0.1,0.8,0.1c0.4,0,0.7,0,1.1-0.1
			c-1-0.2-1.7-0.7-2.4-1.4c-0.6-0.7-0.9-1.6-0.9-2.6v0c0.6,0.3,1.2,0.5,1.9,0.5c-0.6-0.4-1-0.9-1.3-1.4c-0.3-0.6-0.5-1.2-0.5-2
			c0-0.7,0.2-1.4,0.6-2c1,1.3,2.3,2.3,3.7,3c1.5,0.8,3,1.2,4.7,1.2c-0.1-0.3-0.1-0.6-0.1-0.9c0-1.1,0.4-2.1,1.2-2.9s1.8-1.2,2.9-1.2
			c1.2,0,2.2,0.4,3,1.3c0.9-0.2,1.8-0.5,2.6-1c-0.3,1-0.9,1.7-1.8,2.3C768.4,2601.5,769.2,2601.3,770,2600.9z"/>
	</g>
</g>
</svg>
